X: 85
T: POLKA: John Walsh's No. 1
T: Goblachan / Derrygallen Bridge
C: C: John Walsh; S: Polca an Rí; John Walsh
C: Set Leaders: Anton, Sophie
Z: Anton Zille ed.; Bregolas at The Session
N: https://www.soundslice.com/slices/47PCc/
N: https://thesession.org/members/26966/sets/7124
R: Polka
M: 2/4
L: 1/8
Q: 1/4=140
K: Gmaj
D|:G>A BA|GE E>D|B,>D ED|B,D ED|
G>A BA|GE E>D|B,>D ED|1 G2 GD:|2 G2 GB/d/||
|:g2 fg|ag g/a/g/e/|dB B/c/B/A/|G>A Bd|
g>g fg|ag g/a/g/e/|dB BA|1 G2 Bd:|2 G2 GD||

